svg/fluentui-system-icons/ic_fluent_heart_circle_hint_32_regular.svg

<svg width="32" height="32" viewBox="0 0 32 32" fill="none" xmlns="http://www.w3.org/2000/svg">
<path d="M13.8104 2.17037C14.5244 2.05816 15.2558 2 16 2C16.7442 2 17.4756 2.05816 18.1896 2.17037C18.7352 2.25611 19.1079 2.7679 19.0222 3.31349C18.9365 3.85908 18.4247 4.23186 17.8791 4.14612C17.2674 4.05 16.6399 4 16 4C15.3601 4 14.7326 4.05 14.1209 4.14612C13.5753 4.23186 13.0635 3.85908 12.9778 3.31349C12.8921 2.7679 13.2648 2.25611 13.8104 2.17037ZM3.31349 12.9778C3.85908 13.0635 4.23186 13.5753 4.14612 14.1209C4.05 14.7326 4 15.3601 4 16C4 16.6399 4.05 17.2674 4.14612 17.8791C4.23186 18.4247 3.85908 18.9365 3.31349 19.0222C2.7679 19.1079 2.25611 18.7352 2.17037 18.1896C2.05816 17.4756 2 16.7442 2 16C2 15.2558 2.05816 14.5244 2.17037 13.8104C2.25611 13.2648 2.7679 12.8921 3.31349 12.9778ZM28.6865 12.9778C29.2321 12.8921 29.7439 13.2648 29.8296 13.8104C29.9418 14.5244 30 15.2558 30 16C30 16.7442 29.9418 17.4756 29.8296 18.1896C29.7439 18.7352 29.2321 19.1079 28.6865 19.0222C28.1409 18.9365 27.7681 18.4247 27.8539 17.8791C27.95 17.2674 28 16.6399 28 16C28 15.3601 27.95 14.7326 27.8539 14.1209C27.7681 13.5753 28.1409 13.0635 28.6865 12.9778ZM12.9778 28.6865C13.0635 28.1409 13.5753 27.7681 14.1209 27.8539C14.7326 27.95 15.3601 28 16 28C16.6399 28 17.2674 27.95 17.8791 27.8539C18.4247 27.7681 18.9365 28.1409 19.0222 28.6865C19.1079 29.2321 18.7352 29.7439 18.1896 29.8296C17.4756 29.9418 16.7442 30 16 30C15.2558 30 14.5244 29.9418 13.8104 29.8296C13.2648 29.7439 12.8921 29.2321 12.9778 28.6865ZM24.2308 4.67272C24.815 5.09824 25.3732 5.57426 25.8995 6.10052C26.4258 6.62678 26.9018 7.18504 27.3273 7.76925C27.6524 8.21566 27.5542 8.84115 27.1077 9.16631C26.6613 9.49147 26.0358 9.39318 25.7107 8.94676C25.3461 8.44629 24.9378 7.9672 24.4853 7.51473C24.0328 7.06225 23.5537 6.65387 23.0533 6.28934C22.6068 5.96418 22.5085 5.3387 22.8337 4.89228C23.1589 4.44586 23.7843 4.34756 24.2308 4.67272ZM9.1663 4.89228C9.49146 5.3387 9.39316 5.96418 8.94675 6.28934C8.44628 6.65387 7.96719 7.06225 7.51472 7.51473C7.06224 7.9672 6.65386 8.44629 6.28933 8.94676C5.96417 9.39318 5.33868 9.49147 4.89227 9.16631C4.44585 8.84115 4.34755 8.21566 4.67271 7.76925C5.09823 7.18504 5.57424 6.62678 6.10051 6.10052C6.62677 5.57426 7.18503 5.09824 7.76924 4.67272C8.21565 4.34756 8.84114 4.44586 9.1663 4.89228ZM27.1077 22.8337C27.5541 23.1589 27.6524 23.7844 27.3273 24.2308C26.9018 24.815 26.4258 25.3732 25.8995 25.8995C25.3732 26.4258 24.815 26.9018 24.2308 27.3273C23.7843 27.6525 23.1589 27.5542 22.8337 27.1077C22.5085 26.6613 22.6068 26.0358 23.0533 25.7107C23.5537 25.3461 24.0328 24.9378 24.4853 24.4853C24.9378 24.0328 25.3461 23.5537 25.7107 23.0533C26.0358 22.6068 26.6613 22.5085 27.1077 22.8337ZM4.89227 22.8337C5.33869 22.5085 5.96417 22.6068 6.28933 23.0533C6.65386 23.5537 7.06224 24.0328 7.51472 24.4853C7.96719 24.9378 8.44628 25.3461 8.94675 25.7107C9.39317 26.0358 9.49146 26.6613 9.1663 27.1077C8.84114 27.5542 8.21565 27.6525 7.76924 27.3273C7.18503 26.9018 6.62677 26.4258 6.10051 25.8995C5.57424 25.3732 5.09823 24.815 4.67271 24.2308C4.34755 23.7844 4.44585 23.1589 4.89227 22.8337ZM18.1105 12.6057C18.7616 11.7983 19.9919 11.7983 20.643 12.6057C21.1235 13.2016 21.1235 14.0519 20.643 14.6479L16.0025 20.4025L11.362 14.6479C10.8814 14.0519 10.8814 13.2016 11.3619 12.6057C12.013 11.7983 13.2433 11.7983 13.8944 12.6057L15.224 14.2545C15.4139 14.4899 15.7001 14.6268 16.0025 14.6268C16.3049 14.6268 16.5911 14.4899 16.7809 14.2545L18.1105 12.6057ZM22.1999 11.3502C20.7482 9.55008 18.0053 9.55007 16.5537 11.3502L16.0025 12.0337L15.4513 11.3502C13.9997 9.55007 11.2567 9.55008 9.80508 11.3502C8.73369 12.6788 8.73369 14.5747 9.80509 15.9033L15.224 22.6232C15.4139 22.8587 15.7001 22.9955 16.0025 22.9955C16.3049 22.9955 16.5911 22.8587 16.7809 22.6232L22.1999 15.9033C23.2713 14.5747 23.2713 12.6788 22.1999 11.3502Z" fill="#212121"/>
</svg>

<svg xmlns="http://www.w3.org/2000/svg" width="32" height="32"><path d="M13.81 2.17a14.098 14.098 0 0 1 4.38 0 1 1 0 0 1-.31 1.976 12.098 12.098 0 0 0-3.76 0 1 1 0 1 1-.31-1.976ZM3.313 12.978a1 1 0 0 1 .833 1.143 12.098 12.098 0 0 0 0 3.758 1 1 0 1 1-1.976.31 14.098 14.098 0 0 1 0-4.379 1 1 0 0 1 1.143-.832Zm25.373 0a1 1 0 0 1 1.144.832 14.099 14.099 0 0 1 0 4.38 1 1 0 1 1-1.976-.31 12.1 12.1 0 0 0 0-3.76 1 1 0 0 1 .832-1.142ZM12.979 28.686a1 1 0 0 1 1.143-.832 12.1 12.1 0 0 0 3.758 0 1 1 0 1 1 .31 1.976 14.099 14.099 0 0 1-4.379 0 1 1 0 0 1-.832-1.143ZM24.23 4.673a14.1 14.1 0 0 1 3.096 3.096 1 1 0 0 1-1.616 1.178 12.101 12.101 0 0 0-2.658-2.658 1 1 0 1 1 1.178-1.616Zm-15.065.22a1 1 0 0 1-.22 1.396A12.096 12.096 0 0 0 6.29 8.947a1 1 0 1 1-1.616-1.178A14.096 14.096 0 0 1 7.77 4.673a1 1 0 0 1 1.397.22Zm17.942 17.94a1 1 0 0 1 .22 1.398 14.095 14.095 0 0 1-3.097 3.096 1 1 0 1 1-1.178-1.616 12.109 12.109 0 0 0 2.658-2.658 1 1 0 0 1 1.397-.22Zm-22.216 0a1 1 0 0 1 1.397.22 12.104 12.104 0 0 0 2.658 2.658 1 1 0 1 1-1.178 1.616 14.091 14.091 0 0 1-3.096-3.096 1 1 0 0 1 .22-1.397ZM18.11 12.607a1.627 1.627 0 0 1 2.533 2.042l-4.64 5.755-4.641-5.755a1.627 1.627 0 1 1 2.532-2.042l1.33 1.649a1 1 0 0 0 1.557 0l1.33-1.65Zm4.09-1.256a3.627 3.627 0 0 0-5.646 0l-.551.684-.552-.684a3.627 3.627 0 0 0-5.646 4.553l5.419 6.72a1 1 0 0 0 1.557 0l5.419-6.72a3.627 3.627 0 0 0 0-4.553Z"/></svg>
